app/images/social/twitter-box.svg

<svg xmlns="http://www.w3.org/2000/svg" width="24" height="24" viewBox="0 0 24 24">
  <path style="fil:#000"
        d="M5 3h14a2 2 0 0 1 2 2v14a2 2 0 0 1-2 2H5a2 2 0 0 1-2-2V5a2 2 0 0 1 2-2m12.71 6.33c.48-.4 1.04-.88 1.29-1.41-.41.21-.9.34-1.44.41.5-.36.91-.83 1.12-1.47-.52.28-1.05.52-1.71.64-1.55-1.87-5.26-.35-4.6 2.45-2.61-.16-4.2-1.34-5.52-2.79-.75 1.22-.1 3.07.79 3.58-.46-.03-.81-.17-1.14-.33.04 1.54.89 2.28 2.08 2.68-.36.07-.76.09-1.14.03.37 1.07 1.14 1.74 2.46 1.88-.9.76-2.56 1.29-3.9 1.08 1.15.73 2.46 1.31 4.28 1.23 4.41-.2 7.36-3.36 7.43-7.98z"/>
</svg>

<?xml version="1.0" encoding="UTF-8"?><!DOCTYPE svg PUBLIC "-//W3C//DTD SVG 1.1//EN"
  "http://www.w3.org/Graphics/SVG/1.1/DTD/svg11.dtd">
<svg xmlns="http://www.w3.org/2000/svg"
     version="1.1" width="24" height="24" viewBox="0 0 24 24">
  <path style="fil:#000"
        d="M5,3H19A2,2 0 0,1 21,5V19A2,2 0 0,1 19,21H5A2,2 0 0,1 3,19V5A2,2 0 0,1 5,3M17.71,9.33C18.19,8.93 18.75,8.45 19,7.92C18.59,8.13 18.1,8.26 17.56,8.33C18.06,7.97 18.47,7.5 18.68,6.86C18.16,7.14 17.63,7.38 16.97,7.5C15.42,5.63 11.71,7.15 12.37,9.95C9.76,9.79 8.17,8.61 6.85,7.16C6.1,8.38 6.75,10.23 7.64,10.74C7.18,10.71 6.83,10.57 6.5,10.41C6.54,11.95 7.39,12.69 8.58,13.09C8.22,13.16 7.82,13.18 7.44,13.12C7.81,14.19 8.58,14.86 9.9,15C9,15.76 7.34,16.29 6,16.08C7.15,16.81 8.46,17.39 10.28,17.31C14.69,17.11 17.64,13.95 17.71,9.33Z"/>
</svg>
